X: 11
T:Cully Set Tune
R:Polka
Z:Added by Alf.Warnock@rogeres.com
Z:This is just Mussels in the Corner in G with A and B swapped.
M:2/4
L:1/8
K:D
|:gf ed|Bd eg/2e/2|dB AG/2A/2|BA A2|
gf ed|Bd eg/2e/2|dB AB/2A/2|G2 G2:|
|:GD GA|Bd eg/2e/2|dB AG/2A/2|BA A2|
GD GA|Bd eg/2e/2|dB A/2B/2A|G2 G2:|

